X: 21661
T: The BRITISH GRENADIERS
Q: "Lively."
%R: march
B: W. Hamilton "Universal Tune-Book" Vol. 2 Glasgow 1846 p.166 #1
S: http://s3-eu-west-1.amazonaws.com/itma.dl.printmaterial/book_pdfs/hamiltonvol2web.pdf
Z: 2016 John Chambers <jc:trillian.mit.edu>
M: C|
L: 1/8
K: D
% - - - - - - - - - - - - - - - - - - - - - - - - -
z2A2 |\
d2c2 d2e2 | f4 g3g | a2d2 {f}e2d<c | d4 z2A2 |\
d2c2 d2e2 | f4 g3g | a2d2 {f}e2(d<c) | d4 z2 |] \
A>A |\
A3B A2G2 | (F2G2) A2A2 | B2B2 gf ed | c4 z2A>A |
d2c2 d2e2 | f4 g3g | a2d2 {f}e2d<c | d4 z2 |]\
a>a |\
a3a a2a2 | a4 a2d2 | d2ef g2f2 | e4 z2e>d |\
f2e2 f2e2 | Tf4 {ef}g3g | a2gf f2Ted | d4 |]
% - - - - - - - - - - - - - - - - - - - - - - - - -

%%sep 1 1 500
%%sep 1 1 500

